X:428
%%etbk:tnset id:129,pos:1,rep:3x,ant:
%%etbk:wsite http://thesession.org/tunes/130
%%etbk:pldat 2016-06-14T17:26,2015-10-07T17:40,2014-11-15T15:59,2014-09-04T18:15,2014-09-03T18:25,2014-09-02T18:21,2014-09-01T18:21,2014-08-31T12:14,2014-08-28T18:18,2014-08-27T18:27,2014-08-26T16:10,2014-08-24T11:25,2014-08-06T18:26,2014-08-03T14:44,2014-08-02T16:16,2014-07-26T14:55,2014-07-21T20:57,2014-07-18T10:38,2014-07-13T15:08,2014-07-02T10:22,2014-05-21T19:06,2014-04-28T18:15,2014-04-08T18:12,2013-05-22T17:53
T: Dance of the honeybees
Z: Piano Box Version by Martin Fleischmann
H: Created 2013-02-19 /  Last Modified 2013-02-19
R: barndance
M: 4/4
L: 1/8
K: Dmaj
!5!d !3!A!1!G |: "D"!3!(3FGF !2!EF !1!D!2!F!4!AF | "A"!3!GA!2!FG !1!E3F | !3!GF!3!G!4!A !2!(3Bcd !5!ed | !3!cd!5!ed !3!c!1!A!4!G!2!E |
"D"!3!(3FGF !2!EF !1!D!2!F!4!AF | "A"!3!GA!2!FG !1!E3F| !3!GF!3!G!4!A !2!(3Bcd !5!ed  |1 !3!c!1!A!4!G!2!E "D"!1!D!5!d !3!A!1!G:|2 !3!c!1!A!4!G!2!E "D"!1!D2 !1!(3AB!3!c |
|: "D"!1!d2 !5!ad !3!fd!2!e!1!d | !2!B!4!d!1!A!3!F !1!D!2!E!3!F!4!A | "em"!2!B!5!ee!4!d Beed | !2!B!4!d!2!ef !4!ggfe |
| "D"!1!d2 !5!ad !3!fd!2!e!1!d | !2!B!4!d!1!A!3!F !1!D!2!E!3!F!4!A  | "em"!2!B!4!d!2!ef !4!gfe!1!d |1 "A"!3!c!1!A!4!G!2!E "D"!1!D2 !1!(3AB!3!c:|2 "A"!3!c!1!A!4!G!2!E "D"!1!D!5!d !3!A!1!G||


